X:1
T:Title
L:1/8
Q:1/4=110
M:4/4
K:C
V:1 treble nm="Church Organ, Staff"
V:1
 A2 d2 ^c2 d2 | e2 f2 ^c2 d2 | _B2 A6 | A2 c2 B2 A2- | AG F2 D2 G2 | F2 E6 | e2 ^c2 A2 d2 | %7
w: By~O.~Gibbons * * *|||||||
 ^c2 d2 A2 d2 | e2 f6 | A2 B2 c2 d2 | e2 ^c2 f2 e2 | e2 d6 | e2 ^c2 A2 d2 | ^c2 d2 A2 d2 | e2 f6 | %15
w: ||||||||
 A2 B2 c2 d2 | e2 ^c2 f2 e2 | e2 d6 |] %18
w: |||

